SF_Symbols/percent.svg

<?xml version="1.0" encoding="UTF-8"?>
<svg xmlns="http://www.w3.org/2000/svg" xmlns:xlink="http://www.w3.org/1999/xlink" width="24" height="24" viewBox="0 0 24 24" version="1.1">
<g id="surface1">
<path style=" stroke:none;fill-rule:nonzero;fill:rgb(100%,100%,100%);fill-opacity:1;" d="M 5.34375 12.269531 C 6.601562 12.269531 7.589844 11.789062 8.308594 10.828125 C 9.027344 9.859375 9.386719 8.546875 9.386719 6.890625 C 9.386719 5.234375 9.027344 3.929688 8.308594 2.976562 C 7.589844 2.023438 6.601562 1.546875 5.34375 1.546875 C 4.085938 1.546875 3.09375 2.027344 2.367188 2.988281 C 1.648438 3.941406 1.289062 5.242188 1.289062 6.890625 C 1.289062 8.546875 1.648438 9.859375 2.367188 10.828125 C 3.085938 11.789062 4.078125 12.269531 5.34375 12.269531 Z M 5.34375 10.628906 C 4.664062 10.628906 4.132812 10.304688 3.75 9.65625 C 3.367188 9 3.175781 8.078125 3.175781 6.890625 C 3.175781 5.726562 3.367188 4.816406 3.75 4.160156 C 4.132812 3.503906 4.664062 3.175781 5.34375 3.175781 C 6.015625 3.175781 6.542969 3.503906 6.925781 4.160156 C 7.308594 4.808594 7.5 5.71875 7.5 6.890625 C 7.5 8.078125 7.308594 9 6.925781 9.65625 C 6.550781 10.304688 6.023438 10.628906 5.34375 10.628906 Z M 18.65625 23.542969 C 19.914062 23.542969 20.902344 23.058594 21.621094 22.089844 C 22.339844 21.128906 22.699219 19.824219 22.699219 18.175781 C 22.699219 16.519531 22.339844 15.214844 21.621094 14.261719 C 20.902344 13.300781 19.914062 12.820312 18.65625 12.820312 C 17.398438 12.820312 16.40625 13.300781 15.679688 14.261719 C 14.960938 15.214844 14.601562 16.519531 14.601562 18.175781 C 14.601562 19.832031 14.960938 21.140625 15.679688 22.101562 C 16.398438 23.0625 17.390625 23.542969 18.65625 23.542969 Z M 18.65625 21.914062 C 17.976562 21.914062 17.445312 21.585938 17.0625 20.929688 C 16.679688 20.273438 16.488281 19.355469 16.488281 18.175781 C 16.488281 17.003906 16.679688 16.09375 17.0625 15.445312 C 17.445312 14.789062 17.976562 14.460938 18.65625 14.460938 C 19.328125 14.460938 19.855469 14.785156 20.238281 15.433594 C 20.621094 16.082031 20.8125 16.996094 20.8125 18.175781 C 20.8125 19.355469 20.621094 20.273438 20.238281 20.929688 C 19.863281 21.585938 19.335938 21.914062 18.65625 21.914062 Z M 4.5 23.589844 C 4.71875 23.714844 4.964844 23.757812 5.238281 23.71875 C 5.519531 23.679688 5.753906 23.527344 5.941406 23.261719 L 19.710938 2.90625 C 19.914062 2.617188 19.972656 2.339844 19.886719 2.074219 C 19.808594 1.800781 19.660156 1.597656 19.441406 1.464844 C 19.238281 1.355469 19.003906 1.324219 18.738281 1.371094 C 18.480469 1.417969 18.25 1.585938 18.046875 1.875 L 4.277344 22.171875 C 4.066406 22.46875 3.996094 22.746094 4.066406 23.003906 C 4.136719 23.261719 4.28125 23.457031 4.5 23.589844 Z M 4.5 23.589844 "/>
</g>
</svg>

<svg xmlns="http://www.w3.org/2000/svg" width="24" height="24"><path style="stroke:none;fill-rule:nonzero;fill:#fff;fill-opacity:1" d="M5.344 12.27c1.258 0 2.246-.48 2.965-1.442.718-.969 1.078-2.281 1.078-3.937 0-1.657-.36-2.961-1.078-3.914-.72-.954-1.707-1.43-2.965-1.43-1.258 0-2.25.48-2.977 1.441-.719.953-1.078 2.254-1.078 3.903 0 1.656.36 2.968 1.078 3.937.719.961 1.711 1.442 2.977 1.442Zm0-1.641c-.68 0-1.211-.324-1.594-.973-.383-.656-.574-1.578-.574-2.765 0-1.164.191-2.075.574-2.73.383-.657.914-.985 1.594-.985.672 0 1.199.328 1.582.984.383.649.574 1.559.574 2.73 0 1.188-.191 2.11-.574 2.766-.375.649-.903.973-1.582.973Zm13.312 12.914c1.258 0 2.246-.484 2.965-1.453.719-.961 1.078-2.266 1.078-3.914 0-1.656-.36-2.961-1.078-3.914-.719-.961-1.707-1.442-2.965-1.442-1.258 0-2.25.48-2.976 1.442-.72.953-1.078 2.258-1.078 3.914 0 1.656.359 2.965 1.078 3.926.718.96 1.71 1.441 2.976 1.441Zm0-1.629c-.68 0-1.21-.328-1.593-.984-.383-.657-.575-1.575-.575-2.754 0-1.172.192-2.082.575-2.73.382-.657.914-.985 1.593-.985.672 0 1.2.324 1.582.973.383.648.575 1.562.575 2.742s-.192 2.097-.575 2.754c-.375.656-.902.984-1.582.984ZM4.5 23.59c.219.125.465.168.738.129.282-.04.516-.192.703-.457l13.77-20.356c.203-.289.262-.566.176-.832a.994.994 0 0 0-.446-.61 1.046 1.046 0 0 0-.703-.093c-.258.047-.488.215-.691.504L4.277 22.172c-.21.297-.28.574-.21.832a.958.958 0 0 0 .433.586Zm0 0"/></svg>
